X: 39409
T: Tap The Barrel
R: jig
M: 6/8
K: Gmajor
c|BAG AFD|DFD AFD|BAG AFD|DGG G2
c|BAG AFD|DFD AFA|BGB cAF|GAG G2:|:
g|f2d g2e|f2d cAG|g2g g/a/bg|afd d2
[1 e|f2d g2e|f2d cAG|BAG cAF|GAG G2:|
[2 e|fed gba/g/|fed cAG|BAG cAF|GAG G2:|

